X:225
T:Untitled March. VWMLa.225
%%VWML:Anon2-3049-p144-0
F:http://www.vwml.org/record/Anon2/3049/p144
S:Anon. MS, late 18thC, Vaughan Williams Mem. Library
O:England;Yorkshire
Z:vmp/efdss.Simon Wilson. Reviewed PJH 2008.
M:2/4
L:1/8
Q:1/4=120
K:G
G>AGB|(AG)G2|B>cBd|(cB)B2|\
df/e/ df/e/|df/e/ db|c'agf|g2g2||
bg ef/g/|af de/f/|ged^c|d/^c/d/e/ d2|\
bg ef/g/|af de/f/|ged^c|d2d2|
G>AGB|(AG)G2|B>cBd|(cB)B2|\
df/e/ df/e/|df/e/ db|c'agf|g2g2||
.d.d(cB)|.d.d(cB)|.e.e(dc)|.e.e(dc)|\
.d.d(cB)|.d.d(cB)|cAGF|G2G2||
d>edc|.B(gfg)|d>edc|.B(gfg)|\
ec'c'c'|dbbb|a/b/a/g/ f/g/f/e/|\
!D.C.!d/e/d/c/ B/c/B/A/|]
